dist/img/mg2.svg

<svg width="184" height="117" viewBox="0 0 184 117" fill="none" xmlns="http://www.w3.org/2000/svg">
<g filter="url(#filter0_d_955_39988)">
<path fill-rule="evenodd" clip-rule="evenodd" d="M163.033 101.123C163.033 103.329 161.243 105.11 159.042 105.11H24.8455C22.6444 105.11 20.8555 103.329 20.8555 101.123V5.57802C20.8555 3.37211 22.6444 1.59033 24.8455 1.59033H159.042C161.243 1.59033 163.033 3.37211 163.033 5.57802V101.123Z" fill="white"/>
<path fill-rule="evenodd" clip-rule="evenodd" d="M27.4219 96.1501H156.645V8.55981H27.4219V96.1501Z" fill="#191551"/>
<mask id="mask0_955_39988" style="mask-type:alpha" maskUnits="userSpaceOnUse" x="3" y="102" width="178" height="10">
<path fill-rule="evenodd" clip-rule="evenodd" d="M3 102.121H180.89V111.081H3V102.121Z" fill="white"/>
</mask>
<g mask="url(#mask0_955_39988)">
<path fill-rule="evenodd" clip-rule="evenodd" d="M3 102.121C3.5303 107.134 8.79888 111.081 15.282 111.081H168.606C175.093 111.081 180.358 107.134 180.891 102.121H3Z" fill="#EFEFEF"/>
</g>
<path fill-rule="evenodd" clip-rule="evenodd" d="M68.4961 105.11H115.397V102.121H68.4961V105.11Z" fill="#CCCCCC"/>
<g clip-path="url(#clip0_955_39988)">
<path d="M45.7259 22H138.274C138.732 22 139.171 22.18 139.494 22.5004C139.818 22.8208 140 23.2553 140 23.7084V30.2694H44V23.7084C44 23.2553 44.1818 22.8208 44.5055 22.5004C44.8292 22.18 45.2682 22 45.7259 22V22Z" fill="#2F2A7A"/>
<path d="M58.4063 26.1348C58.4063 26.4086 58.4883 26.6763 58.642 26.904C58.7957 27.1317 59.0141 27.3091 59.2697 27.4139C59.5253 27.5187 59.8065 27.5461 60.0778 27.4927C60.3491 27.4393 60.5983 27.3074 60.7939 27.1138C60.9895 26.9202 61.1228 26.6735 61.1767 26.4049C61.2307 26.1363 61.203 25.8579 61.0971 25.6049C60.9913 25.352 60.812 25.1357 60.582 24.9836C60.352 24.8314 60.0816 24.7502 59.8049 24.7502C59.6212 24.7502 59.4394 24.7861 59.2697 24.8556C59.1 24.9252 58.9458 25.0272 58.8159 25.1558C58.686 25.2843 58.583 25.437 58.5127 25.6049C58.4424 25.7729 58.4062 25.953 58.4063 26.1348Z" fill="#7C9BE3"/>
<path d="M53.9453 26.1348C53.9453 26.4086 54.0274 26.6763 54.181 26.904C54.3347 27.1316 54.5532 27.3091 54.8087 27.4139C55.0643 27.5186 55.3455 27.5461 55.6168 27.4926C55.8881 27.4392 56.1373 27.3074 56.3329 27.1137C56.5285 26.9201 56.6617 26.6734 56.7157 26.4049C56.7697 26.1363 56.742 25.8579 56.6361 25.6049C56.5303 25.352 56.351 25.1357 56.121 24.9836C55.891 24.8315 55.6206 24.7503 55.344 24.7502C55.1603 24.7502 54.9784 24.786 54.8087 24.8556C54.639 24.9252 54.4848 25.0272 54.355 25.1558C54.2251 25.2843 54.1221 25.437 54.0518 25.6049C53.9815 25.7729 53.9453 25.953 53.9453 26.1348Z" fill="#FED512"/>
<path d="M49.4844 26.1348C49.4844 26.4086 49.5664 26.6763 49.7201 26.904C49.8738 27.1317 50.0922 27.3091 50.3478 27.4139C50.6034 27.5187 50.8846 27.5461 51.1559 27.4927C51.4272 27.4392 51.6764 27.3074 51.872 27.1137C52.0676 26.9201 52.2009 26.6734 52.2548 26.4048C52.3088 26.1363 52.2811 25.8579 52.1752 25.6049C52.0694 25.3519 51.8901 25.1357 51.6601 24.9836C51.4301 24.8314 51.1596 24.7502 50.883 24.7502C50.6993 24.7502 50.5175 24.7861 50.3478 24.8556C50.1781 24.9252 50.0239 25.0272 49.894 25.1558C49.7641 25.2843 49.6611 25.437 49.5908 25.6049C49.5205 25.7729 49.4844 25.953 49.4844 26.1348Z" fill="#7C9BE3"/>
<path d="M44 30.2693H140V81.2915C140 81.7446 139.818 82.1791 139.494 82.4995C139.171 82.8199 138.732 82.9999 138.274 82.9999H45.7259C45.2682 82.9999 44.8292 82.8199 44.5055 82.4995C44.1818 82.1791 44 81.7446 44 81.2915V30.2693Z" fill="white"/>
<path d="M130.401 24.5625H68.2852V27.7068H130.401V24.5625Z" fill="#544EA0"/>
</g>
</g>
<g clip-path="url(#clip1_955_39988)">
<path d="M107.142 57.5585L106.731 57.2186C105.691 56.3601 104.107 56.4696 103.206 57.4606L100.873 60.0303C100.541 60.3991 99.9059 60.1744 99.9059 59.6846C99.9059 59.483 99.8938 59.2813 99.8696 59.0796V42.9065C99.8696 41.8463 98.9568 40.9763 97.8446 40.9763H97.6934C96.5812 40.9763 95.6684 41.8463 95.6684 42.9065V53.4331C95.6684 53.6867 95.4508 53.8941 95.1848 53.8941C94.8886 53.8941 94.6468 53.6636 94.6468 53.3813V40.8668C94.6468 39.8412 93.7642 39 92.6883 39H92.4041C91.3282 39 90.4456 39.8412 90.4456 40.8668V53.4677C90.4456 53.7039 90.2461 53.8941 89.9983 53.8941C89.6839 53.8941 89.424 53.6521 89.424 53.3467V43.304C89.424 42.2439 88.5112 41.3738 87.399 41.3738H87.2478C86.1356 41.3738 85.2228 42.2439 85.2228 43.304V53.4274C85.2228 53.6809 85.0052 53.8883 84.7392 53.8883C84.443 53.8883 84.2073 53.6579 84.2073 53.3813V45.4647C84.2073 44.4045 83.2945 43.5345 82.1822 43.5345H82.0311C80.9128 43.5287 80 44.3987 80 45.4647V59.3735C80 59.4138 80 59.4484 80.006 59.4887C80.006 59.5521 80 59.6155 80 59.6846V67.342C80 70.4533 82.6718 73 85.9361 73H93.9698C96.0553 73 97.905 71.9571 98.9629 70.3957C99.2832 69.9232 99.6278 69.4681 100.015 69.0417L107.396 60.9176C108.29 59.9209 108.175 58.4113 107.142 57.5585Z" fill="#191551"/>
</g>
<path d="M92 79C87.451 79 83.0042 77.6804 79.2219 75.2081C75.4396 72.7357 72.4916 69.2217 70.7508 65.1104C69.01 60.999 68.5545 56.475 69.4419 52.1105C70.3294 47.7459 72.5199 43.7368 75.7366 40.5901C78.9532 37.4434 83.0514 35.3005 87.5129 34.4323C91.9745 33.5642 96.599 34.0097 100.802 35.7127C105.004 37.4157 108.597 40.2996 111.124 43.9997C113.651 47.6998 115 52.0499 115 56.5C114.993 62.4653 112.568 68.1843 108.256 72.4024C103.944 76.6205 98.0978 78.9932 92 79ZM92 38.4618C88.3531 38.4618 84.7881 39.5198 81.7558 41.5018C78.7236 43.4839 76.3602 46.3011 74.9646 49.5971C73.569 52.8931 73.2038 56.52 73.9153 60.0191C74.6268 63.5181 76.3829 66.7322 78.9616 69.2549C81.5404 71.7776 84.8259 73.4956 88.4027 74.1916C91.9795 74.8876 95.687 74.5304 99.0563 73.1651C102.426 71.7998 105.305 69.4878 107.331 66.5215C109.358 63.5551 110.439 60.0676 110.439 56.5C110.434 51.7176 108.489 47.1326 105.032 43.751C101.576 40.3693 96.8887 38.4671 92 38.4618Z" fill="#FB3D81"/>
<path d="M105.122 40.4145L75.832 68.9453L79.0051 72.1372L108.295 43.6064L105.122 40.4145Z" fill="#FB3D81"/>
<defs>
<filter id="filter0_d_955_39988" x="0" y="0.590332" width="183.891" height="115.491" filterUnits="userSpaceOnUse" color-interpolation-filters="sRGB">
<feFlood flood-opacity="0" result="BackgroundImageFix"/>
<feColorMatrix in="SourceAlpha" type="matrix" values="0 0 0 0 0 0 0 0 0 0 0 0 0 0 0 0 0 0 127 0" result="hardAlpha"/>
<feOffset dy="2"/>
<feGaussianBlur stdDeviation="1.5"/>
<feColorMatrix type="matrix" values="0 0 0 0 0 0 0 0 0 0 0 0 0 0 0 0 0 0 0.15 0"/>
<feBlend mode="normal" in2="BackgroundImageFix" result="effect1_dropShadow_955_39988"/>
<feBlend mode="normal" in="SourceGraphic" in2="effect1_dropShadow_955_39988" result="shape"/>
</filter>
<clipPath id="clip0_955_39988">
<rect width="96" height="61" fill="white" transform="translate(44 22)"/>
</clipPath>
<clipPath id="clip1_955_39988">
<rect width="28" height="34" fill="white" transform="translate(80 39)"/>
</clipPath>
</defs>
</svg>

<svg width="184" height="117" fill="none" xmlns="http://www.w3.org/2000/svg"><g filter="url(#filter0_d_955_39988)"><path fill-rule="evenodd" clip-rule="evenodd" d="M163.033 101.123a3.988 3.988 0 01-3.991 3.987H24.845a3.988 3.988 0 01-3.99-3.987V5.578a3.988 3.988 0 013.99-3.988h134.197a3.99 3.99 0 013.991 3.988v95.545z" fill="#fff"/><path fill-rule="evenodd" clip-rule="evenodd" d="M27.422 96.15h129.223V8.56H27.422v87.59z" fill="#191551"/><mask id="mask0_955_39988" style="mask-type:alpha" maskUnits="userSpaceOnUse" x="3" y="102" width="178" height="10"><path fill-rule="evenodd" clip-rule="evenodd" d="M3 102.121h177.89v8.96H3v-8.96z" fill="#fff"/></mask><g mask="url(#mask0_955_39988)"><path fill-rule="evenodd" clip-rule="evenodd" d="M3 102.121c.53 5.013 5.799 8.96 12.282 8.96h153.324c6.487 0 11.752-3.947 12.285-8.96H3z" fill="#EFEFEF"/></g><path fill-rule="evenodd" clip-rule="evenodd" d="M68.496 105.11h46.901v-2.989h-46.9v2.989z" fill="#CCC"/><g clip-path="url(#clip0_955_39988)"><path d="M45.726 22h92.548c.458 0 .897.18 1.22.5.324.32.506.755.506 1.208v6.561H44v-6.56a1.7 1.7 0 01.505-1.209c.324-.32.763-.5 1.22-.5z" fill="#2F2A7A"/><path d="M58.406 26.135c0 .274.082.541.236.769a1.412 1.412 0 002.152.21 1.38 1.38 0 00.303-1.51 1.387 1.387 0 00-.515-.62 1.408 1.408 0 00-2.07.62 1.37 1.37 0 00-.106.53z" fill="#7C9BE3"/><path d="M53.945 26.135c0 .274.082.541.236.769a1.412 1.412 0 002.152.21 1.38 1.38 0 00.303-1.51 1.387 1.387 0 00-.515-.62 1.41 1.41 0 00-1.766.172 1.383 1.383 0 00-.41.979z" fill="#FED512"/><path d="M49.484 26.135c0 .274.082.541.236.769a1.412 1.412 0 002.152.21 1.38 1.38 0 00.303-1.51 1.387 1.387 0 00-.515-.62 1.409 1.409 0 00-2.07.62c-.07.169-.106.349-.106.53z" fill="#7C9BE3"/><path d="M44 30.27h96v51.022c0 .453-.182.887-.506 1.207-.323.32-.762.5-1.22.5H45.726c-.458 0-.897-.18-1.22-.5A1.7 1.7 0 0144 81.293V30.268z" fill="#fff"/><path d="M130.401 24.563H68.285v3.144h62.116v-3.145z" fill="#544EA0"/></g></g><g clip-path="url(#clip1_955_39988)"><path d="M107.142 57.559l-.411-.34c-1.04-.859-2.624-.75-3.525.242l-2.333 2.57c-.332.368-.967.143-.967-.346 0-.202-.012-.404-.036-.605V42.907c0-1.06-.913-1.93-2.025-1.93h-.152c-1.112 0-2.025.87-2.025 1.93v10.526a.474.474 0 01-.483.461.527.527 0 01-.538-.513V40.867c0-1.026-.883-1.867-1.959-1.867h-.284c-1.076 0-1.958.841-1.958 1.867v12.6c0 .237-.2.427-.448.427a.561.561 0 01-.574-.547V43.304c0-1.06-.913-1.93-2.025-1.93h-.151c-1.112 0-2.025.87-2.025 1.93v10.123a.474.474 0 01-.484.461.52.52 0 01-.532-.507v-7.916c0-1.06-.912-1.93-2.025-1.93h-.15c-1.12-.006-2.032.864-2.032 1.93v13.908c0 .04 0 .075.006.116 0 .063-.006.127-.006.196v7.657C80 70.453 82.672 73 85.936 73h8.034c2.085 0 3.935-1.043 4.993-2.604.32-.473.665-.928 1.052-1.354l7.381-8.124a2.32 2.32 0 00-.254-3.36z" fill="#191551"/></g><path d="M92 79c-4.549 0-8.996-1.32-12.778-3.792A22.615 22.615 0 0170.75 65.11a22.047 22.047 0 01-1.31-13 22.353 22.353 0 016.296-11.52 23.163 23.163 0 0111.776-6.158 23.477 23.477 0 0113.289 1.28A22.901 22.901 0 01111.124 44 22.155 22.155 0 01115 56.5c-.007 5.965-2.432 11.684-6.744 15.902C103.944 76.621 98.098 78.993 92 79zm0-40.538a18.732 18.732 0 00-10.244 3.04 18.13 18.13 0 00-6.791 8.095 17.674 17.674 0 00-1.05 10.422 17.92 17.92 0 005.047 9.236 18.57 18.57 0 009.44 4.937 18.82 18.82 0 0010.654-1.027 18.354 18.354 0 008.275-6.644 17.754 17.754 0 003.108-10.021c-.005-4.782-1.95-9.367-5.407-12.749-3.456-3.382-8.143-5.284-13.032-5.29z" fill="#FB3D81"/><path d="M105.122 40.414l-29.29 28.531 3.173 3.192 29.29-28.53-3.173-3.193z" fill="#FB3D81"/><defs><clipPath id="clip0_955_39988"><path fill="#fff" transform="translate(44 22)" d="M0 0h96v61H0z"/></clipPath><clipPath id="clip1_955_39988"><path fill="#fff" transform="translate(80 39)" d="M0 0h28v34H0z"/></clipPath><filter id="filter0_d_955_39988" x="0" y=".59" width="183.891" height="115.491" filterUnits="userSpaceOnUse" color-interpolation-filters="sRGB"><feFlood flood-opacity="0" result="BackgroundImageFix"/><feColorMatrix in="SourceAlpha" values="0 0 0 0 0 0 0 0 0 0 0 0 0 0 0 0 0 0 127 0" result="hardAlpha"/><feOffset dy="2"/><feGaussianBlur stdDeviation="1.5"/><feColorMatrix values="0 0 0 0 0 0 0 0 0 0 0 0 0 0 0 0 0 0 0.15 0"/><feBlend in2="BackgroundImageFix" result="effect1_dropShadow_955_39988"/><feBlend in="SourceGraphic" in2="effect1_dropShadow_955_39988" result="shape"/></filter></defs></svg>
